X:63
%%score 1 2
%%pagewidth 7.5in
T:The friar and the nun.
M:2/4
L:1/8
K:Bb
V:1 clef-treble
V:2 clef-bass octave=-1
V:1 
G/A/&E|BBBB&D4|B3B&F2D2|[FAc]cAB|c3e&[FA]4|[FBd]BBB|
w:All* in a mis-ty morn-ing, Cloudy* was the weather, I meeting* with an
V:2
E|B,4|D2B,2|F4|F2F,2|B,4|
V:1
B3B&[B,F]2[C=E]2|[CA]FFG|_A3A&[CF]2[B,D]2|[B,EG]EEF|G_ABB&E4|
w:old man Clothed* all in leather, With ne'er a shirt up-on his back, But
V:2
D2C2|F4|F,2B,2|E,4|E2G2|
V:1
[DF]FDE|F3_A&D2B,2|[B,G]EEF|G=ABB&E2D2|AB[Ac]>B&E2E2|[DB]3||
w:wool un-to his skin. With how d'ye do, and how d'ye do, and how d'ye do a-gain.
V:2
B4|B,2D2|E4|C2G2|F2F2|B3||

